flaticon/medical/teeth-10.svg

<svg xmlns="http://www.w3.org/2000/svg" width="32" height="32" viewBox="0 0 24 24">
    <path d="M 21.90625 6.660156 C 21.582031 5.421875 20.621094 4.242188 19.210938 3.335938 C 17.472656 2.214844 15.011719 2.089844 12.792969 3.007812 L 12.714844 3.042969 C 12.675781 3.058594 12.640625 3.074219 12.601562 3.085938 C 12.417969 3.152344 12.273438 3.207031 12.15625 3.253906 C 11.789062 3.394531 11.789062 3.394531 11.148438 3.207031 L 11.003906 3.164062 C 10.683594 3.074219 10.335938 3.078125 10.019531 3.175781 L 9.773438 3.253906 L 9.019531 9.597656 L 9.816406 9.691406 L 10.503906 3.898438 C 10.597656 3.894531 10.691406 3.90625 10.78125 3.933594 L 10.953125 3.984375 C 11.753906 4.21875 11.878906 4.21875 12.445312 3.996094 C 12.554688 3.957031 12.691406 3.902344 12.867188 3.84375 C 12.921875 3.824219 12.976562 3.800781 13.035156 3.773438 L 13.097656 3.746094 C 15.078125 2.929688 17.257812 3.027344 18.777344 4.007812 C 20.019531 4.804688 20.859375 5.820312 21.132812 6.863281 C 21.910156 9.796875 21.191406 12.554688 20.433594 15.46875 C 20.234375 16.230469 20.027344 17.015625 19.851562 17.804688 L 19.738281 18.324219 C 19.425781 19.746094 19.101562 21.214844 18.378906 22.484375 C 18.136719 22.910156 17.882812 23.160156 17.722656 23.136719 C 17.539062 23.117188 17.03125 22.828125 16.292969 20.554688 C 16.1875 20.222656 16.09375 19.871094 15.996094 19.5 C 15.683594 18.292969 15.328125 16.941406 14.300781 16.074219 C 14.296875 16.070312 14.292969 16.070312 14.289062 16.066406 C 14.15625 15.953125 14.011719 15.851562 13.855469 15.757812 C 13.855469 15.757812 13.851562 15.753906 13.851562 15.753906 C 12.53125 14.96875 11.066406 15.285156 9.890625 16.558594 C 9.707031 16.761719 9.527344 16.980469 9.359375 17.230469 C 8.664062 18.242188 8.28125 19.371094 7.910156 20.464844 C 7.765625 20.886719 7.617188 21.324219 7.449219 21.746094 C 7.195312 22.40625 6.957031 22.933594 6.445312 23.191406 C 5.992188 23.078125 5.507812 21.898438 5.320312 21.441406 L 5.273438 21.324219 C 3.734375 17.609375 3.257812 14.445312 2.65625 10.441406 L 2.644531 10.351562 C 2.238281 7.675781 3.058594 4.542969 5.796875 3.554688 L 5.820312 3.546875 C 6.046875 3.472656 6.304688 3.527344 6.5 3.683594 L 5.84375 9.226562 L 6.636719 9.320312 L 7.339844 3.414062 L 7.226562 3.28125 C 6.816406 2.792969 6.15625 2.59375 5.574219 2.785156 L 5.546875 2.796875 C 3.253906 3.609375 1.222656 6.296875 1.851562 10.472656 L 1.863281 10.558594 C 2.476562 14.621094 2.957031 17.824219 4.53125 21.628906 L 4.582031 21.746094 C 4.925781 22.589844 5.507812 24 6.515625 24 L 6.597656 24 L 6.671875 23.96875 C 7.597656 23.578125 7.941406 22.6875 8.195312 22.039062 C 8.367188 21.601562 8.519531 21.152344 8.667969 20.722656 C 8.859375 20.15625 9.046875 19.605469 9.273438 19.078125 C 9.78125 20.113281 10.820312 21.796875 12.191406 21.796875 C 12.351562 21.796875 12.515625 21.773438 12.683594 21.722656 C 13.585938 21.457031 14.039062 20.523438 14.371094 19.84375 L 14.394531 19.789062 C 14.464844 19.648438 14.554688 19.484375 14.648438 19.304688 C 14.742188 19.125 14.847656 18.925781 14.949219 18.722656 C 15.050781 19.042969 15.136719 19.375 15.222656 19.703125 C 15.320312 20.070312 15.417969 20.445312 15.53125 20.800781 C 16.015625 22.292969 16.644531 23.828125 17.640625 23.929688 C 18.171875 23.984375 18.644531 23.628906 19.074219 22.878906 C 19.859375 21.503906 20.195312 19.976562 20.519531 18.496094 L 20.632812 17.976562 C 20.808594 17.203125 21.007812 16.425781 21.207031 15.671875 C 21.957031 12.785156 22.738281 9.796875 21.90625 6.660156 Z M 13.941406 18.929688 C 13.839844 19.117188 13.75 19.289062 13.675781 19.441406 L 13.648438 19.496094 C 13.371094 20.074219 13.019531 20.789062 12.457031 20.957031 C 11.125 21.355469 9.902344 18.554688 9.765625 18.234375 L 9.730469 18.152344 C 9.773438 18.070312 9.816406 18 9.859375 17.933594 C 9.902344 17.863281 9.945312 17.792969 9.992188 17.722656 C 10 17.710938 10.011719 17.695312 10.019531 17.679688 C 10.4375 17.070312 11.480469 15.824219 12.839844 16.183594 C 13.035156 16.234375 13.234375 16.320312 13.441406 16.441406 C 13.570312 16.519531 13.6875 16.605469 13.796875 16.699219 C 13.835938 16.730469 13.867188 16.769531 13.90625 16.804688 C 13.96875 16.867188 14.035156 16.933594 14.09375 17 C 14.144531 17.0625 14.191406 17.125 14.238281 17.191406 C 14.273438 17.242188 14.308594 17.289062 14.339844 17.335938 C 14.402344 17.433594 14.460938 17.539062 14.519531 17.648438 C 14.527344 17.664062 14.535156 17.675781 14.539062 17.6875 C 14.382812 18.097656 14.152344 18.535156 13.941406 18.929688 Z M 13.941406 18.929688"/>
    <path d="M 7.066406 2.800781 L 8.21875 2.800781 L 6.917969 14 L 5.867188 14 L 5.867188 14.800781 L 6.824219 14.800781 L 6.777344 15.199219 L 5.785156 15.199219 L 5.785156 16 L 6.683594 16 L 6.636719 16.398438 L 5.699219 16.398438 L 5.699219 17.199219 L 6.542969 17.199219 L 6.496094 17.601562 L 5.617188 17.601562 L 5.617188 18.398438 L 6.40625 18.398438 L 6.359375 18.800781 L 5.53125 18.800781 L 5.53125 19.601562 L 6.265625 19.601562 L 6.085938 21.152344 C 6.058594 21.375 6.214844 21.570312 6.4375 21.597656 C 6.453125 21.597656 6.46875 21.601562 6.480469 21.601562 C 6.683594 21.601562 6.855469 21.449219 6.878906 21.246094 L 7.070312 19.601562 L 7.933594 19.601562 L 7.933594 18.800781 L 7.164062 18.800781 L 7.210938 18.398438 L 8.015625 18.398438 L 8.015625 17.601562 L 7.300781 17.601562 L 7.347656 17.199219 L 8.097656 17.199219 L 8.097656 16.398438 L 7.441406 16.398438 L 7.488281 16 L 8.183594 16 L 8.183594 15.199219 L 7.582031 15.199219 L 7.628906 14.800781 L 8.265625 14.800781 L 8.265625 14 L 7.722656 14 L 9.023438 2.800781 L 10.269531 2.800781 L 10.269531 0.800781 L 10.667969 0.800781 L 10.667969 0 L 6.667969 0 L 6.667969 0.800781 L 7.066406 0.800781 Z M 9.46875 0.800781 L 9.46875 2 L 7.867188 2 L 7.867188 0.800781 Z M 9.46875 0.800781"/>
</svg>

<svg xmlns="http://www.w3.org/2000/svg" width="32" height="32" viewBox="0 0 24 24">
    <path d="M21.906 6.66c-.324-1.238-1.285-2.418-2.695-3.324-1.738-1.121-4.2-1.246-6.418-.328l-.078.035c-.04.016-.074.031-.113.043-.184.066-.329.121-.446.168-.367.14-.367.14-1.008-.047l-.144-.043a1.758 1.758 0 0 0-.984.012l-.247.078-.753 6.344.796.093.688-5.793a.833.833 0 0 1 .277.036l.172.05c.8.235.926.235 1.492.012.11-.039.246-.094.422-.152.055-.02.11-.043.168-.07l.063-.028c1.98-.816 4.16-.719 5.68.262 1.242.797 2.081 1.812 2.355 2.855.777 2.934.058 5.692-.7 8.606-.199.761-.406 1.547-.581 2.336l-.114.52c-.312 1.421-.636 2.89-1.36 4.16-.241.425-.495.675-.655.652-.184-.02-.692-.309-1.43-2.582-.105-.332-.2-.684-.297-1.055-.312-1.207-.668-2.559-1.695-3.426-.004-.004-.008-.004-.012-.008a3.205 3.205 0 0 0-.434-.308l-.003-.004c-1.32-.785-2.786-.469-3.961.805a5.921 5.921 0 0 0-.532.671c-.695 1.012-1.078 2.141-1.449 3.235-.144.422-.293.86-.46 1.281-.255.66-.493 1.188-1.005 1.445-.453-.113-.937-1.293-1.125-1.75l-.047-.117c-1.539-3.715-2.015-6.879-2.617-10.883l-.011-.09c-.407-2.675.414-5.808 3.152-6.796l.023-.008a.734.734 0 0 1 .68.137l-.656 5.543.793.093.703-5.906-.113-.133c-.41-.488-1.07-.687-1.653-.496l-.027.012c-2.293.812-4.324 3.5-3.695 7.676l.011.086c.614 4.062 1.094 7.265 2.668 11.07l.051.117C4.926 22.59 5.508 24 6.516 24h.082l.074-.031c.926-.39 1.27-1.282 1.523-1.93.172-.437.325-.887.473-1.316.191-.567.379-1.118.605-1.645.508 1.035 1.547 2.719 2.918 2.719.16 0 .325-.024.493-.074.902-.266 1.355-1.2 1.687-1.88l.024-.054c.07-.14.16-.305.253-.484.094-.18.2-.38.301-.582.102.32.188.652.274.98.097.367.195.742.308 1.098.485 1.492 1.114 3.027 2.11 3.129.53.054 1.004-.301 1.433-1.051.785-1.375 1.121-2.902 1.446-4.383l.113-.52c.176-.773.375-1.55.574-2.304.75-2.887 1.531-5.875.7-9.012zm-7.965 12.27c-.101.187-.191.36-.265.511l-.028.055c-.277.578-.628 1.293-1.191 1.461-1.332.398-2.555-2.402-2.691-2.723l-.036-.082c.043-.082.086-.152.13-.218.042-.07.085-.141.132-.211.008-.012.02-.028.028-.043.418-.61 1.46-1.856 2.82-1.496.195.05.394.136.601.257.13.079.246.164.356.258.039.031.07.07.11.106.062.062.128.129.187.195.05.063.097.125.144.191l.102.145c.062.098.12.203.18.312l.02.04c-.157.41-.388.847-.599 1.242zm0 0"/>
    <path d="M7.066 2.8H8.22L6.918 14h-1.05v.8h.956l-.047.4h-.992v.8h.899l-.047.398h-.938v.801h.844l-.047.403h-.879v.796h.79l-.048.403h-.828v.8h.735l-.18 1.551a.398.398 0 0 0 .351.446c.016 0 .032.004.043.004a.401.401 0 0 0 .399-.356l.191-1.644h.864V18.8h-.77l.047-.403h.805v-.796H7.3l.047-.403h.75v-.8H7.44L7.488 16h.696v-.8h-.602l.047-.4h.637V14h-.543l1.3-11.2h1.247v-2h.398V0h-4v.8h.398zM9.47.8V2H7.867V.8zm0 0"/>
</svg>
